X: 1
T: the King's House
C: Bobby McLeod
P: retreat march
R: retreat march
Z: 2011 John Chambers <jc:trillian.mit.edu>
S: Printed MS of unknown origin, from Paul Milde
M: 3/4
L: 1/8
K: Amix
AB \
| c2 e>c BA | a2 f2 a>f | e2 f>e cA | B4 cd \
| ed G2 g>f | ed d2 cd | e2 g2 BG |1 A2 AE :|2 A2 z ||
|: A ce \
| a2 a2 fd | e>d c2 ef | g2 G2 d>c | B2 GB A/B/c/d/ \
| e2 ec BA | d>e f2 g>f | e2 d>c BA | A3 :|
